X:255
T: Skippery Sam
S: "The Ted Furey Collection of Irish Traditional Tunes"
Z: B.Black
L: 1/8
M: 4/4
R: hornpipe
K: D
A2 | DFAF GBdB |Acec dfaf |gbed ceAF |GBED CE A,2 |
DFAF GBdB |Acec dfaf | gbed ceAF | GBEC D2 :|
FG | Adcd fdcd |baga fdcd |AdFA DFAF |GFED CE A,2 |
Adcd fdcd |baga fdcd | AdFA DFAF | GFEC D2 :|
